assets/skill/herr-npm.svg

<svg width="58" height="57" viewBox="0 0 58 57" fill="none" xmlns="http://www.w3.org/2000/svg">
<rect x="0.875732" width="56.7516" height="56.7516" rx="8.25478" fill="url(#paint0_linear_268_867)"/>
<path d="M9.38892 20.6506H49.1139V33.8947H29.2514V36.1022H20.424V33.8932H9.38892V20.6506ZM11.5965 31.6871H16.0102V25.0644H18.2164V31.6857H20.424V22.8582H11.5965V31.6871ZM22.6315 22.8582V33.8947H27.0453V31.6871H31.459V22.8582H22.6315ZM27.0453 25.0658H29.2514V29.4809H27.0438L27.0453 25.0658ZM33.6666 22.8582V31.6871H38.0803V25.0644H40.2879V31.6857H42.4954V25.0644H44.703V31.6857H46.9106V22.8582H33.6666Z" fill="#CB3837"/>
<defs>
<linearGradient id="paint0_linear_268_867" x1="29.2515" y1="0" x2="29.2515" y2="56.7516" gradientUnits="userSpaceOnUse">
<stop stop-color="#FDFDFD"/>
<stop offset="1" stop-color="#F5F4F4"/>
</linearGradient>
</defs>
</svg>

<svg xmlns="http://www.w3.org/2000/svg" width="58" height="57" fill="none" viewBox="0 0 58 57"><rect width="56.752" height="56.752" x=".876" fill="url(#paint0_linear_268_867)" rx="8.255"/><path fill="#cb3837" d="M9.389 20.65h39.725v13.245H29.25v2.207h-8.827v-2.209H9.389zm2.208 11.037h4.413v-6.623h2.206v6.622h2.208v-8.828h-8.827zm11.035-8.829v11.037h4.413v-2.208h4.414v-8.829zm4.413 2.208h2.206v4.415h-2.207zm6.622-2.208v8.83h4.413v-6.624h2.208v6.622h2.207v-6.622h2.208v6.622h2.208v-8.828z"/><defs><linearGradient id="paint0_linear_268_867" x1="29.252" x2="29.252" y1="0" y2="56.752" gradientUnits="userSpaceOnUse"><stop stop-color="#fdfdfd"/><stop offset="1" stop-color="#f5f4f4"/></linearGradient></defs></svg>
